lib/brands/logos/grammarly.svg

<svg xmlns="http://www.w3.org/2000/svg" fill="none" aria-hidden="true" viewBox="0 0 231 59"><g id="Grammarly"><g id="Group"><g id="Union"><path fill="#4C4C4C" d="M198.002 17.7202C198.002 16.489 199.004 15.4948 200.24 15.4948C201.479 15.4948 202.479 16.489 202.479 17.7202V34.9944C202.479 36.2234 201.479 37.2176 200.24 37.2176C199.004 37.2176 198.002 36.2234 198.002 34.9944V17.7202Z"/><path fill="#4C4C4C" d="M117.969 23.3997C117.969 22.1707 118.971 21.1743 120.208 21.1743C121.444 21.1743 122.446 22.1707 122.446 23.3997V23.5753C123.478 22.2563 124.831 21.058 127.101 21.058C129.161 21.058 130.722 21.9644 131.548 23.5468C132.932 21.9359 134.582 21.058 136.732 21.058C140.06 21.058 142.064 23.0486 142.064 26.8256V34.9941C142.064 36.2232 141.062 37.2173 139.823 37.2173C138.587 37.2173 137.584 36.2232 137.584 34.9941V28.2894C137.584 26.1826 136.644 25.0962 134.964 25.0962C133.285 25.0962 132.254 26.1826 132.254 28.2894V34.9941C132.254 36.2232 131.254 37.2173 130.015 37.2173C128.779 37.2173 127.777 36.2232 127.777 34.9941V28.2894C127.777 26.1826 126.836 25.0962 125.156 25.0962C123.478 25.0962 122.446 26.1826 122.446 28.2894V34.9941C122.446 36.2232 121.444 37.2173 120.208 37.2173C118.971 37.2173 117.969 36.2232 117.969 34.9941V23.3997Z"/><path fill="#4C4C4C" fill-rule="evenodd" d="M74.7846 40.7011C74.0207 40.4092 73.5195 39.7947 73.5195 38.9739C73.5195 37.9797 74.343 37.1611 75.3455 37.1611C75.6391 37.1611 75.8754 37.2182 76.0807 37.306C77.3768 37.8919 78.7612 38.2431 80.4415 38.2431C83.504 38.2431 84.948 36.7792 84.948 33.9679V33.2063C83.621 34.7887 82.1792 35.7543 79.7923 35.7543C76.1116 35.7543 72.782 33.09 72.782 28.4351V28.3759C72.782 23.6925 76.169 21.0589 79.7923 21.0589C82.2366 21.0589 83.6806 22.0816 84.8884 23.4006V23.3698C84.8884 22.1716 85.8886 21.1752 87.1273 21.1752C88.3637 21.1752 89.364 22.1716 89.364 23.4006V33.5004C89.364 36.3118 88.6883 38.3594 87.3613 39.6784C85.8886 41.1422 83.621 41.7853 80.5585 41.7853C78.4675 41.7853 76.6415 41.4341 74.7846 40.7011ZM84.948 28.4351V28.3759C84.948 26.2405 83.2677 24.7459 81.0884 24.7459C78.9092 24.7459 77.2598 26.2405 77.2598 28.3759V28.4351C77.2598 30.6013 78.9092 32.0651 81.0884 32.0651C83.2677 32.0651 84.948 30.5727 84.948 28.4351Z" clip-rule="evenodd"/><path fill="#4C4C4C" d="M91.8985 23.3997C91.8985 22.1707 92.9009 21.1743 94.1396 21.1743C95.3761 21.1743 96.3763 22.1707 96.3763 23.3997V24.102C97.0255 22.5789 98.0853 21.1743 99.4101 21.1743C100.794 21.1743 101.589 22.0829 101.589 23.3405C101.589 24.5124 100.823 25.2147 99.9113 25.4188C97.6437 25.9477 96.3763 27.6749 96.3763 30.8353V34.9941C96.3763 36.2232 95.3761 37.2173 94.1396 37.2173C92.9009 37.2173 91.8985 36.2232 91.8985 34.9941V23.3997Z"/><path fill="#4C4C4C" fill-rule="evenodd" d="M101.06 32.4753V32.5346C101.06 35.6378 103.506 37.3343 106.481 37.3343C108.66 37.3343 110.161 36.5442 111.252 35.3437V35.3744C111.252 36.3116 112.107 37.218 113.403 37.218C114.61 37.218 115.582 36.2808 115.582 35.0804V27.9389C115.582 25.8299 115.052 24.1026 113.873 22.9307C112.753 21.818 110.987 21.175 108.543 21.175C106.45 21.175 104.92 21.4669 103.506 21.9936C102.798 22.2569 102.296 22.9307 102.296 23.7208C102.296 24.7457 103.122 25.538 104.153 25.538C104.359 25.538 104.535 25.5072 104.802 25.4194C105.655 25.1561 106.657 24.9805 107.894 24.9805C110.133 24.9805 111.281 26.0054 111.281 27.8489V28.1123C110.161 27.7326 109.013 27.4693 107.423 27.4693C103.681 27.4693 101.06 29.0494 101.06 32.4753ZM111.34 30.7196V31.5096C111.34 33.1183 109.927 34.2618 107.834 34.2618C106.392 34.2618 105.39 33.5595 105.39 32.359V32.2997C105.39 30.8951 106.569 30.1336 108.483 30.1336C109.574 30.1336 110.574 30.3662 111.34 30.7196Z" clip-rule="evenodd"/><path fill="#4C4C4C" d="M146.718 21.1743C145.482 21.1743 144.479 22.1707 144.479 23.3997V34.9941C144.479 36.2232 145.482 37.2173 146.718 37.2173C147.955 37.2173 148.957 36.2232 148.957 34.9941V28.2894C148.957 26.1826 149.988 25.0962 151.666 25.0962C153.347 25.0962 154.287 26.1826 154.287 28.2894V34.9941C154.287 36.2232 155.29 37.2173 156.526 37.2173C157.765 37.2173 158.765 36.2232 158.765 34.9941V28.2894C158.765 26.1826 159.796 25.0962 161.474 25.0962C163.155 25.0962 164.095 26.1826 164.095 28.2894V34.9941C164.095 36.2232 165.098 37.2173 166.334 37.2173C167.573 37.2173 168.575 36.2232 168.575 34.9941V26.8256C168.575 23.0486 166.57 21.058 163.243 21.058C161.092 21.058 159.443 21.9359 158.059 23.5468C157.233 21.9644 155.672 21.058 153.612 21.058C151.342 21.058 149.988 22.2563 148.957 23.5753V23.3997C148.957 22.1707 147.955 21.1743 146.718 21.1743Z"/><path fill="#4C4C4C" fill-rule="evenodd" d="M170.048 32.5346V32.4753C170.048 29.0494 172.668 27.4693 176.411 27.4693C178.001 27.4693 179.149 27.7326 180.268 28.1123V27.8489C180.268 26.0054 179.12 24.9805 176.881 24.9805C175.645 24.9805 174.642 25.1561 173.79 25.4194C173.523 25.5072 173.346 25.538 173.141 25.538C172.11 25.538 171.284 24.7457 171.284 23.7208C171.284 22.9307 171.785 22.2569 172.492 21.9936C173.907 21.4669 175.439 21.175 177.528 21.175C179.975 21.175 181.741 21.818 182.86 22.9307C184.04 24.1026 184.569 25.8299 184.569 27.9389V35.0804C184.569 36.2808 183.596 37.218 182.39 37.218C181.094 37.218 180.24 36.3116 180.24 35.3744V35.3437C179.149 36.5442 177.647 37.3343 175.468 37.3343C172.492 37.3343 170.048 35.6378 170.048 32.5346ZM180.328 31.5096V30.7196C179.562 30.3662 178.559 30.1336 177.471 30.1336C175.556 30.1336 174.377 30.8951 174.377 32.2997V32.359C174.377 33.5595 175.38 34.2618 176.824 34.2618C178.913 34.2618 180.328 33.1183 180.328 31.5096Z" clip-rule="evenodd"/><path fill="#4C4C4C" d="M189.194 21.1743C187.958 21.1743 186.955 22.1707 186.955 23.3997V34.9941C186.955 36.2232 187.958 37.2173 189.194 37.2173C190.433 37.2173 191.433 36.2232 191.433 34.9941V30.8353C191.433 27.6749 192.7 25.9477 194.968 25.4188C195.88 25.2147 196.646 24.5124 196.646 23.3405C196.646 22.0829 195.851 21.1743 194.467 21.1743C193.142 21.1743 192.082 22.5789 191.433 24.102V23.3997C191.433 22.1707 190.433 21.1743 189.194 21.1743Z"/><path fill="#4C4C4C" d="M204.629 39.5614C204.629 40.6434 205.395 41.1723 206.044 41.405C206.78 41.6683 207.486 41.8154 208.489 41.8154C211.169 41.8154 212.494 40.6149 213.819 37.4238L219.328 24.2778C219.416 24.0737 219.533 23.5755 219.533 23.2244C219.533 22.0524 218.561 21.1745 217.413 21.1745C216.263 21.1745 215.616 21.9361 215.263 22.8732L211.964 31.9789L208.548 22.8425C208.164 21.7891 207.517 21.1745 206.398 21.1745C205.161 21.1745 204.19 22.0524 204.19 23.3121C204.19 23.604 204.307 24.043 204.424 24.3371L209.816 36.7501L209.668 37.1012C209.255 37.8913 208.871 38.0384 208.076 38.0384C207.751 38.0384 207.517 37.9791 207.133 37.8628C206.956 37.8035 206.751 37.7465 206.398 37.7465C205.484 37.7465 204.629 38.4773 204.629 39.5614Z"/></g><g id="Group_2"><path id="Fill-19" fill="#15C39A" fill-rule="evenodd" d="M60.3938 29.1779C60.3938 42.607 49.4422 53.4947 35.9293 53.4947C22.4187 53.4947 11.467 42.607 11.467 29.1779C11.467 15.7487 22.4187 4.86316 35.9293 4.86316C49.4422 4.86316 60.3938 15.7487 60.3938 29.1779Z" clip-rule="evenodd"/><path id="Fill-22" fill="#FEFEFE" fill-rule="evenodd" d="M40.757 32.4731C39.7413 32.4731 38.9376 33.3839 39.1275 34.4286C39.271 35.2252 40.0239 35.7695 40.8387 35.7695H43.4021L44.8881 35.5632C42.5101 39.0286 38.3834 40.6241 33.868 39.9218C30.1962 39.3468 27.0387 36.8778 25.7073 33.4278C22.6846 25.5928 28.4408 18.1156 35.9391 18.1156C39.8495 18.1156 43.2763 20.3893 45.2414 23.1348C45.2414 23.1348 45.2436 23.1919 45.2436 23.1941C45.7669 23.9425 46.798 24.1553 47.5509 23.6374C48.2663 23.1458 48.4628 22.2087 48.0345 21.4735H48.0455C45.3253 17.2553 40.4412 14.5559 34.9477 14.9224C27.7961 15.3986 22.0067 21.2167 21.596 28.3318C21.1169 36.6079 27.7232 43.3674 35.9391 43.3674C40.2557 43.3674 44.1197 41.4998 46.7538 38.4755L46.4403 40.2093V41.7763C46.4403 42.5839 46.9901 43.3345 47.7894 43.4772C48.8426 43.6659 49.7567 42.8671 49.7567 41.8575V32.4731H40.757Z" clip-rule="evenodd"/></g></g></g></svg>

<svg xmlns="http://www.w3.org/2000/svg" fill="none" aria-hidden="true" viewBox="0 0 231 59"><path fill="#4C4C4C" d="M198.002 17.72a2.23 2.23 0 0 1 2.238-2.225 2.23 2.23 0 0 1 2.239 2.225v17.274c0 1.23-1 2.224-2.239 2.224a2.23 2.23 0 0 1-2.238-2.224V17.72Zm-80.033 5.68a2.232 2.232 0 0 1 2.239-2.226c1.236 0 2.238.997 2.238 2.226v.175c1.032-1.319 2.385-2.517 4.655-2.517 2.06 0 3.621.906 4.447 2.489 1.384-1.611 3.034-2.489 5.184-2.489 3.328 0 5.332 1.99 5.332 5.768v8.168a2.23 2.23 0 0 1-2.241 2.223 2.23 2.23 0 0 1-2.239-2.223V28.29c0-2.107-.94-3.193-2.62-3.193-1.679 0-2.71 1.087-2.71 3.193v6.705c0 1.23-1 2.223-2.239 2.223a2.23 2.23 0 0 1-2.238-2.223V28.29c0-2.107-.941-3.193-2.621-3.193-1.678 0-2.71 1.087-2.71 3.193v6.705a2.23 2.23 0 0 1-2.238 2.223 2.23 2.23 0 0 1-2.239-2.223V23.4Z"/><path fill="#4C4C4C" fill-rule="evenodd" d="M74.785 40.701c-.764-.292-1.266-.906-1.266-1.727 0-.994.824-1.813 1.826-1.813.294 0 .53.057.736.145a10.25 10.25 0 0 0 4.36.937c3.063 0 4.507-1.464 4.507-4.275v-.762c-1.327 1.583-2.769 2.548-5.156 2.548-3.68 0-7.01-2.664-7.01-7.319v-.06c0-4.683 3.387-7.316 7.01-7.316 2.445 0 3.889 1.022 5.096 2.341v-.03c0-1.198 1-2.195 2.24-2.195a2.23 2.23 0 0 1 2.236 2.226v10.1c0 2.81-.676 4.858-2.003 6.177-1.472 1.464-3.74 2.107-6.803 2.107-2.09 0-3.917-.35-5.773-1.084Zm10.163-12.266v-.06c0-2.135-1.68-3.63-3.86-3.63-2.179 0-3.828 1.495-3.828 3.63v.06c0 2.166 1.65 3.63 3.828 3.63 2.18 0 3.86-1.492 3.86-3.63Z" clip-rule="evenodd"/><path fill="#4C4C4C" d="M91.898 23.4a2.233 2.233 0 0 1 2.242-2.226 2.23 2.23 0 0 1 2.236 2.226v.702c.65-1.523 1.71-2.928 3.034-2.928 1.384 0 2.179.909 2.179 2.166 0 1.172-.766 1.875-1.678 2.079-2.267.529-3.535 2.256-3.535 5.416v4.16c0 1.228-1 2.222-2.236 2.222a2.23 2.23 0 0 1-2.242-2.223V23.4Z"/><path fill="#4C4C4C" fill-rule="evenodd" d="M101.06 32.475v.06c0 3.103 2.446 4.8 5.421 4.8 2.179 0 3.68-.79 4.771-1.991v.03c0 .938.855 1.844 2.151 1.844 1.207 0 2.179-.937 2.179-2.138v-7.14c0-2.11-.53-3.836-1.709-5.008-1.12-1.113-2.886-1.756-5.33-1.756-2.093 0-3.623.292-5.037.819a1.846 1.846 0 0 0-1.21 1.727c0 1.025.826 1.817 1.857 1.817.206 0 .382-.03.649-.119.853-.263 1.855-.439 3.092-.439 2.239 0 3.387 1.025 3.387 2.869v.263a11.305 11.305 0 0 0-3.858-.643c-3.742 0-6.363 1.58-6.363 5.006Zm10.28-1.756v.79c0 1.61-1.413 2.753-3.506 2.753-1.442 0-2.444-.703-2.444-1.903v-.06c0-1.404 1.179-2.165 3.093-2.165 1.091 0 2.091.232 2.857.585Z" clip-rule="evenodd"/><path fill="#4C4C4C" d="M146.718 21.174a2.233 2.233 0 0 0-2.239 2.226v11.594a2.23 2.23 0 0 0 2.239 2.223 2.23 2.23 0 0 0 2.239-2.223V28.29c0-2.107 1.031-3.193 2.709-3.193 1.681 0 2.621 1.087 2.621 3.193v6.705a2.23 2.23 0 0 0 2.239 2.223 2.229 2.229 0 0 0 2.239-2.223V28.29c0-2.107 1.031-3.193 2.709-3.193 1.681 0 2.621 1.087 2.621 3.193v6.705a2.23 2.23 0 0 0 2.239 2.223 2.23 2.23 0 0 0 2.241-2.223v-8.168c0-3.777-2.005-5.768-5.332-5.768-2.151 0-3.8.878-5.184 2.489-.826-1.583-2.387-2.489-4.447-2.489-2.27 0-3.624 1.198-4.655 2.517V23.4a2.232 2.232 0 0 0-2.239-2.226Z"/><path fill="#4C4C4C" fill-rule="evenodd" d="M170.048 32.535v-.06c0-3.426 2.62-5.006 6.363-5.006 1.59 0 2.738.264 3.857.643v-.263c0-1.844-1.148-2.869-3.387-2.869-1.236 0-2.239.176-3.091.44a1.928 1.928 0 0 1-.649.118c-1.031 0-1.857-.792-1.857-1.817 0-.79.501-1.464 1.208-1.727 1.415-.527 2.947-.82 5.036-.82 2.447 0 4.213.644 5.332 1.757 1.18 1.172 1.709 2.899 1.709 5.008v7.141c0 1.2-.973 2.138-2.179 2.138-1.296 0-2.15-.907-2.15-1.844v-.03c-1.091 1.2-2.593 1.99-4.772 1.99-2.976 0-5.42-1.696-5.42-4.8Zm10.28-1.025v-.79c-.766-.354-1.769-.586-2.857-.586-1.915 0-3.094.761-3.094 2.166v.059c0 1.2 1.003 1.903 2.447 1.903 2.089 0 3.504-1.144 3.504-2.752Z" clip-rule="evenodd"/><path fill="#4C4C4C" d="M189.194 21.174a2.233 2.233 0 0 0-2.239 2.226v11.594a2.23 2.23 0 0 0 2.239 2.223 2.229 2.229 0 0 0 2.239-2.223v-4.159c0-3.16 1.267-4.887 3.535-5.416.912-.204 1.678-.907 1.678-2.079 0-1.257-.795-2.166-2.179-2.166-1.325 0-2.385 1.405-3.034 2.928V23.4c0-1.23-1-2.226-2.239-2.226Zm15.435 18.387c0 1.082.766 1.611 1.415 1.844.736.263 1.442.41 2.445.41 2.68 0 4.005-1.2 5.33-4.391l5.509-13.146a3.35 3.35 0 0 0 .205-1.054c0-1.172-.972-2.05-2.12-2.05-1.15 0-1.797.762-2.15 1.7l-3.299 9.105-3.416-9.136c-.384-1.054-1.031-1.669-2.15-1.669-1.237 0-2.208.878-2.208 2.138 0 .292.117.73.234 1.025l5.392 12.413-.148.351c-.413.79-.797.937-1.592.937-.325 0-.559-.059-.943-.175a2.105 2.105 0 0 0-.735-.117 1.78 1.78 0 0 0-1.769 1.815Z"/><path fill="#15C39A" fill-rule="evenodd" d="M60.394 29.178c0 13.429-10.952 24.317-24.465 24.317-13.51 0-24.462-10.888-24.462-24.317 0-13.43 10.952-24.315 24.462-24.315 13.513 0 24.465 10.886 24.465 24.315Z" clip-rule="evenodd"/><path fill="#FEFEFE" fill-rule="evenodd" d="M40.757 32.473c-1.016 0-1.82.91-1.63 1.956.144.796.897 1.34 1.712 1.34h2.563l1.486-.206c-2.378 3.466-6.505 5.061-11.02 4.359-3.672-.575-6.83-3.044-8.16-6.494-3.023-7.835 2.733-15.312 10.231-15.312 3.91 0 7.337 2.273 9.302 5.019l.003.06c.523.747 1.554.96 2.307.442a1.62 1.62 0 0 0 .483-2.164h.011a14.38 14.38 0 0 0-13.097-6.55c-7.152.476-12.941 6.294-13.352 13.409-.48 8.276 6.127 15.035 14.343 15.035 4.317 0 8.18-1.867 10.815-4.892l-.314 1.734v1.567c0 .808.55 1.558 1.35 1.701a1.656 1.656 0 0 0 1.967-1.62v-9.384h-9Z" clip-rule="evenodd"/></svg>
